svgs/sharp-regular/film.svg

<svg xmlns="http://www.w3.org/2000/svg" viewBox="0 0 512 512"><!--! Font Awesome Pro 6.6.0 by @fontawesome - https://fontawesome.com License - https://fontawesome.com/license (Commercial License) Copyright 2024 Fonticons, Inc. --><path d="M352 432l-192 0 0-112 0-40 192 0 0 40 0 112zm0-200l-192 0 0-40 0-112 192 0 0 112 0 40zM48 80l64 0 0 88-64 0 0-88zm0 136l64 0 0 80-64 0 0-80zm64 216l-64 0 0-88 64 0 0 88zM400 168l0-88 64 0 0 88-64 0zm0 48l64 0 0 80-64 0 0-80zm0 128l64 0 0 88-64 0 0-88zM512 32l-48 0L48 32 0 32 0 80 0 432l0 48 48 0 416 0 48 0 0-48 0-352 0-48z"/></svg>

<svg xmlns="http://www.w3.org/2000/svg" viewBox="0 0 512 512"><!--! Font Awesome Pro 6.4.0 by @fontawesome - https://fontawesome.com License - https://fontawesome.com/license (Commercial License) Copyright 2023 Fonticons, Inc. --><path d="M352 432H160V320 280H352v40V432zm0-200H160V192 80H352V192v40zM48 80h64v88H48V80zm0 136h64v80H48V216zm64 216H48V344h64v88zM400 168V80h64v88H400zm0 48h64v80H400V216zm0 128h64v88H400V344zM512 32H464 48 0V80 432v48H48 464h48V432 80 32z"/></svg>
